images/skype.svg

<svg width="18" height="14" viewBox="0 0 18 14" fill="none" xmlns="http://www.w3.org/2000/svg">
<path d="M17.3638 8.48624C17.4918 8.03101 17.5599 7.55846 17.5599 7.0735C17.5599 3.43737 13.7699 0.48958 9.09472 0.48958C8.60116 0.48958 8.11756 0.52276 7.64704 0.5859C6.8905 0.21518 5.99542 0 5.0353 0C2.32402 0 0.12616 1.70963 0.12616 3.81808C0.12616 4.52293 0.3727 5.18261 0.80092 5.74938C0.68866 6.17713 0.62968 6.61985 0.62968 7.07345C0.62968 10.7096 4.41958 13.6574 9.09472 13.6574C9.62428 13.6574 10.1423 13.6192 10.6448 13.5469C11.3358 13.8358 12.126 14 12.9654 14C15.6768 14 17.8745 12.2906 17.8745 10.1819C17.8745 9.57259 17.6901 8.99719 17.3638 8.48624ZM13.4363 10.2199C13.0446 10.6509 12.4661 10.9925 11.7164 11.2349C10.974 11.4749 10.0841 11.5966 9.07114 11.5966C7.8553 11.5966 6.83596 11.4303 6.04036 11.102C5.47162 10.863 5.0026 10.5394 4.64662 10.1401C4.28704 9.73663 4.10464 9.33632 4.10464 8.95034C4.10464 8.70907 4.22344 8.49991 4.4578 8.32874C4.6897 8.15906 4.98688 8.0731 5.34124 8.0731C5.63212 8.0731 5.88298 8.14105 6.08698 8.27507C6.2818 8.4035 6.44902 8.59353 6.58336 8.83895C6.73336 9.10616 6.89692 9.33179 7.06966 9.5095C7.23568 9.68044 7.47454 9.82413 7.77958 9.93627C8.08648 10.0493 8.50018 10.1066 9.00904 10.1066C9.70882 10.1066 10.2826 9.99035 10.7142 9.76113C11.1357 9.53727 11.3406 9.26856 11.3406 8.93961C11.3406 8.67967 11.2337 8.47541 11.0137 8.31511C10.7833 8.14753 10.4795 8.0171 10.1104 7.92764C9.72568 7.83435 9.20338 7.73374 8.55736 7.62855C7.6822 7.48277 6.93826 7.30982 6.34576 7.11433C6.34348 7.11363 6.34114 7.11289 6.33886 7.11209C5.73184 6.91129 5.2426 6.63283 4.8847 6.28441C4.52116 5.93059 4.33696 5.48669 4.33696 4.96491C4.33696 4.46754 4.53034 4.01921 4.91176 3.63249C5.2903 3.24847 5.84314 2.95003 6.55486 2.74526C7.2574 2.54319 8.09308 2.44081 9.03862 2.44081C9.79462 2.44081 10.4593 2.50871 11.0141 2.64287C11.572 2.77802 12.0424 2.96053 12.412 3.18509C12.7843 3.41133 13.0612 3.65339 13.2351 3.90479C13.4108 4.1587 13.4999 4.4114 13.4999 4.65584C13.4999 4.89109 13.383 5.10487 13.1526 5.29121C12.9209 5.47862 12.6284 5.57377 12.2832 5.57377C11.9697 5.57377 11.7244 5.51427 11.5541 5.39695C11.3957 5.28803 11.2314 5.11821 11.0489 4.87387C10.8378 4.56195 10.5824 4.31606 10.2893 4.14279C10.0049 3.97451 9.52936 3.88906 8.87602 3.88906C8.26924 3.88906 7.77574 3.98379 7.40932 4.17065C7.05622 4.35069 6.88468 4.55714 6.88468 4.80172C6.88468 4.95175 6.93988 5.0771 7.05346 5.18499C7.17376 5.29928 7.34344 5.39966 7.55794 5.4831C7.78042 5.57009 8.00968 5.6392 8.23936 5.68853C8.47462 5.7393 8.86936 5.81453 9.41068 5.91178C9.98104 6.00703 10.5122 6.11193 10.9958 6.22421C11.0929 6.24675 11.1889 6.26957 11.282 6.29272C11.8457 6.43305 12.3329 6.60613 12.7301 6.80708C13.1356 7.01246 13.4567 7.27622 13.6845 7.59108C13.9129 7.90706 14.0286 8.29724 14.0286 8.75047C14.0285 9.29297 13.8292 9.78726 13.4363 10.2199Z" fill="black"/>
</svg>

<svg width="18" height="14" fill="none" xmlns="http://www.w3.org/2000/svg"><path d="M17.364 8.486c.128-.455.196-.928.196-1.413C17.56 3.438 13.77.49 9.095.49c-.494 0-.977.033-1.448.096A5.948 5.948 0 005.035 0C2.324 0 .126 1.71.126 3.818c0 .705.247 1.365.675 1.931-.112.428-.171.87-.171 1.324 0 3.637 3.79 6.584 8.465 6.584.53 0 1.047-.038 1.55-.11a6.027 6.027 0 002.32.453c2.712 0 4.91-1.71 4.91-3.818 0-.61-.185-1.185-.511-1.696zm-3.928 1.734c-.391.43-.97.772-1.72 1.015-.742.24-1.632.362-2.645.362-1.216 0-2.235-.167-3.03-.495-.57-.239-1.038-.563-1.394-.962-.36-.403-.542-.804-.542-1.19 0-.24.118-.45.353-.621.232-.17.529-.256.883-.256.291 0 .542.068.746.202.195.128.362.319.496.564.15.267.314.493.487.67.166.171.405.315.71.427.306.113.72.17 1.229.17.7 0 1.274-.116 1.705-.345.422-.224.627-.492.627-.821a.732.732 0 00-.327-.625c-.23-.167-.534-.298-.904-.387a21.774 21.774 0 00-1.553-.3c-.875-.145-1.619-.318-2.211-.514a.184.184 0 01-.007-.002c-.607-.2-1.096-.48-1.454-.828a1.775 1.775 0 01-.548-1.32c0-.496.193-.945.575-1.332.378-.384.931-.682 1.643-.887.702-.202 1.538-.304 2.484-.304.756 0 1.42.068 1.975.202.558.135 1.028.318 1.398.542.372.226.65.468.823.72.176.254.265.506.265.75 0 .236-.117.45-.347.636-.232.188-.525.283-.87.283-.313 0-.559-.06-.729-.177-.158-.109-.323-.279-.505-.523a2.391 2.391 0 00-.76-.731c-.284-.168-.76-.254-1.413-.254-.607 0-1.1.095-1.467.282-.353.18-.524.386-.524.63 0 .15.055.276.168.384.12.114.29.215.505.298.222.087.452.156.681.206.236.05.63.126 1.172.223a25.952 25.952 0 011.871.38 7.01 7.01 0 011.448.515c.406.205.727.47.954.784.229.316.345.706.345 1.16 0 .542-.2 1.036-.593 1.469z" fill="#000"/></svg>
